X: 260
T: Fang fengzheng
L: 1/8
M: 2/4
K: G
d2g e [I:setbarnb 1]| 
d2B A | 
d2g e | 
d g B A | 
G3E | 
d e d d | 
E G B A | 
G4 | 
B GA2 | 
A d B/ d/ B/ A/ | 
d GA2 | 
A d B d | 
g B A/ B/ A/ G/ | 
G E D D | 
d d d G | 
A B A E | 
D4 |]

@@@ Tune index: 9134
